!!!COA: des Prez, Josquin
!!!CDT: ~1450-1521/08/27
!!!OTL: Ave caro Christi cara
!!!AGN: Motet
!!!SCT: NJE 21.1
!!!SCA: New Josquin Edition 21.1
!!!voices: 4
**kern	**kern	**kern	**kern
*staff4	*staff3	*staff2	*staff1
*Ivox	*Ivox	*Ivox	*Ivox
*I"Bassus	*I"Tenor	*I"Contra	*I"Superius
*I'B	*I'T	*I'C	*I'S
*>[A,B,C]	*>[A,B,C]	*>[A,B,C]	*>[A,B,C]
*>A	*>A	*>A	*>A
*clefF4	*clefGv2	*clefG2	*clefG2
*k[]	*k[]	*k[]	*k[]
*M2/1	*M2/1	*M2/1	*M2/1
*met(C|)	*met(C|)	*met(C|)	*met(C|)
=1-	=1-	=1-	=1-
0r	0r	[0e	0b
=2	=2	=2	=2
0r	0r	1e]	1g
.	.	1c	[1cc
=3	=3	=3	=3
0r	0r	0f	1cc]
.	.	.	1a
=4	=4	=4	=4
0r	0r	1d	1.b
.	.	[1e	.
.	.	.	2g/
=5	=5	=5	=5
0r	0r	2e/]	1g
.	.	2c/	.
.	.	1c	1a
=6	=6	=6	=6
1r	0B	1d	0b
[1E	.	[1e	.
=7	=7	=7	=7
1E]	1G	1e]	0r
1C	[1c	1r	.
=8	=8	=8	=8
0F	1c]	0r	0r
.	1A	.	.
=9	=9	=9	=9
1D	1.B	0r	0r
[1E	.	.	.
.	2G/	.	.
=10	=10	=10	=10
2E\]	1G	0r	0r
2C/	.	.	.
1C	1A	.	.
=11	=11	=11	=11
1D	0B	0r	1r
[1E	.	.	[1b
=12	=12	=12	=12
1E]	1r	0e	1b]
1r	[1e	.	1g
=13	=13	=13	=13
0A	1e]	1c	0cc
.	1c	[1f	.
=14	=14	=14	=14
1F	1.d	1f]	1a
[1G	.	1d	[1b
.	2B\	.	.
=15	=15	=15	=15
2G\]	1B	1.e	2b\]
2E\	.	.	2g/
1E	[1c	.	1g
.	.	2c/	.
=16	=16	=16	=16
1.F	2c\]	1c	1a
.	2B\	.	.
.	2A/	[1d	[1a
2E\	2G/	.	.
=17	=17	=17	=17
1D	1F	1d]	2a/]
.	.	.	2b\
[1C	1G	2.e/	[1cc
.	.	4f/	.
=18	=18	=18	=18
2C/]	1r	4g/	1cc]
.	.	4e/	.
2D\	.	2.f/	.
1E	1G	.	1b
.	.	4e/	.
.	.	[2e/	.
=19	=19	=19	=19
0F	0A	2e/]	0a
.	.	4d/	.
.	.	4c/	.
.	.	1d	.
=20	=20	=20	=20
0E	0B	0e	1g
.	.	.	2r
.	.	.	2g/
=21	=21	=21	=21
0r	0r	2r	2a/
.	.	2g/	2b\
.	.	2a/	2.cc\
.	.	2b\	.
.	.	.	4b\
=22	=22	=22	=22
0r	0r	2.cc\	4a/
.	.	.	4g/
.	.	.	2a/
.	.	4b\	.
.	.	4a/	2e/
.	.	4g/	.
.	.	[2a/	[2f/
=23	=23	=23	=23
0r	2r	4a/]	4f/]
.	.	4g/	4e/
.	2G/	2e/	1e
.	2A/	2f/	.
.	2B\	2f/	2d/
=24	=24	=24	=24
2r	2.c\	1e	1e
2C/	.	.	.
.	4B\	.	.
2D\	2A/	1r	1r
2E\	2G/	.	.
=25	=25	=25	=25
2.F\	2A/	0r	0r
.	1c	.	.
4E\	.	.	.
4D\	.	.	.
4C/	.	.	.
[2D\	[2B\	.	.
=26	=26	=26	=26
4D\]	4B\]	2r	0r
4C/	4A/	.	.
4BB/	1A	2c/	.
4AA/	.	.	.
2BB/	.	2.d/	.
2BB/	2G#i/	.	.
.	.	4e/	.
=27	=27	=27	=27
1AA	2A/	2f/	1r
.	2c\	2.e/	.
2r	2c\	.	2r
.	.	4d/	.
2E\	2B\	2e/	2g/
=28	=28	=28	=28
2F\	2A/	2d/	2a/
2E\	1e	2.g/	2b\
2C/	.	.	2cc\
.	.	4e/	.
2D\	2d\	2f/	[2b\
=29	=29	=29	=29
2E\	2c\	2e/	4b\]
.	.	.	4a/
2F\	2A/	2d/	1a
1E	1B	1e	.
.	.	.	2g#i/
=30	=30	=30	=30
0r	2A/	0r	1a
.	2d\	.	.
.	2d\	.	2r
.	2d\	.	2a/
=31	=31	=31	=31
0r	2c\	2r	2a/
.	2A/	2e/	2a/
.	2c\	2e/	2g/
.	2c\	2e/	2e/
=32	=32	=32	=32
2r	1G	2d/	2g/
2G\	.	2B/	2g/
2G\	2r	2d/	1d
2G\	2d\	2d/	.
=33	=33	=33	=33
2F\	2d\	1A	2r
2D\	2d\	.	2a/
2F\	2c\	1r	2a/
2F\	2A/	.	2a/
=34	=34	=34	=34
1C	2c\	2r	2g/
.	2c\	2e/	2e/
2r	2.G/	2e/	2g/
2G\	.	2e/	2g/
.	4A/	.	.
=35	=35	=35	=35
2G\	4B\	2d/	2.d/
.	4c\	.	.
2G\	2d\	2B/	.
.	.	.	4e/
2F\	1A	2d/	4f/
.	.	.	4g/
2D\	.	2d/	[2a/
=36	=36	=36	=36
2F\	2.A/	4A/	2a/]
.	.	4B/	.
2F\	.	4c/	4g/
.	4B\	4d/	4f/
2C/	2c\	2e/	2e/
2D\	2F/	[2d/	[2a/
=37	=37	=37	=37
1E	1G	2d/]	4a/]
.	.	.	4g/
.	.	2c/	1g
1D	1A	[1d	.
.	.	.	2f#i/
=38	=38	=38	=38
0G	1G	0d_	0g
.	1r	.	.
=39	=39	=39	=39
1r	0B	1d]	1r
[1E	.	1r	[1g
=40	=40	=40	=40
1E]	1B	0e	1g]
1E	1B	.	1g
=41	=41	=41	=41
1E	1c	1e	1g
[1F	1A	1c	[1a
=42	=42	=42	=42
1F]	1c	0f	1a]
1D	1d	.	1b
=43	=43	=43	=43
0C	0e	0g	0cc
=44	=44	=44	=44
0G	[0d	1g	0b
.	.	1g	.
=45	=45	=45	=45
0D	0d]	1f	0a
.	.	2r	.
.	.	2f/	.
=46	=46	=46	=46
0r	0r	2f/	2r
.	.	2e/	2cc\
.	.	2f/	2cc\
.	.	2d/	2b\
=47	=47	=47	=47
0r	0r	2e/	2cc\
.	.	2f/	2a/
.	.	2g/	2b\
.	.	2e/	2cc\
=48	=48	=48	=48
1r	0r	0d	2dd\
.	.	.	2b\
2r	.	.	1a
2F\	.	.	.
=49	=49	=49	=49
2F\	2r	0r	0r
2E\	2c\	.	.
2F\	2c\	.	.
2D\	2B\	.	.
=50	=50	=50	=50
2E\	2c\	2r	1r
2F\	2A/	2f/	.
2G\	2B\	2d/	2r
2E\	2c\	2e/	[2cc\
=51	=51	=51	=51
1D	2d\	2f/	4cc\]
.	.	.	4a/
.	2B\	2d/	2b\
1r	1A	2e/	2cc\
.	.	2f/	2a/
=52	=52	=52	=52
0r	2r	2g/	2b\
.	2A/	2e/	2cc\
.	2.B\	1d	2.dd\
.	4c\	.	4cc\
=53	=53	=53	=53
0r	2d\	1r	4b\
.	.	.	4a/
.	2A/	.	1a
.	1B	2r	.
.	.	2d/	2g#i/
=54	=54	=54	=54
2r	1A	2e/	1a
2D\	.	2f/	.
2.E\	1r	2.g/	1r
4F\	.	4f/	.
=55	=55	=55	=55
2G\	0r	4e/	0r
.	.	4d/	.
2D\	.	1d	.
1E	.	.	.
.	.	2c#i/	.
=56	=56	=56	=56
1D	0r	1d	2r
.	.	.	2a/
2.E\	.	1r	2g/
.	.	.	2g/
4D\	.	.	.
=57	=57	=57	=57
2C/	0r	1r	2e/
1E	.	.	2g/
.	.	2r	2f/
2D\	.	2a/	2f/
=58	=58	=58	=58
1E	0r	2g/	1e
.	.	2g/	.
1r	.	2e/	2r
.	.	2g/	2e/
=59	=59	=59	=59
0r	0r	2f/	2a/
.	.	2f/	2a/
.	.	1e	2g/
.	.	.	2e/
=60	=60	=60	=60
0r	0r	2r	1g
.	.	2e/	.
.	.	2a/	1f
.	.	2a/	.
=61	=61	=61	=61
0r	1r	2g/	1e
.	.	2e/	.
.	2r	1g	1r
.	2B\	.	.
=62	=62	=62	=62
0r	2d\	1f	2r
.	2d\	.	1a
.	2c\	1e	.
.	2A/	.	4g/
.	.	.	4f/
=63	=63	=63	=63
2r	1c	1r	1e
2E\	.	.	.
2G\	1B	2r	1d
2G\	.	2g/	.
=64	=64	=64	=64
2F\	1A	1.a	2.f/
2D\	.	.	.
.	.	.	4g/
1F	2r	.	4a/
.	.	.	4b\
.	2A/	2f/	[2cc\
=65	=65	=65	=65
1E	2B\	1g	4cc\]
.	.	.	4b\
.	2c\	.	2.b\
1D	1d	1f	.
.	.	.	4a/
.	.	.	[2a/
=66	=66	=66	=66
0E	2c\	[0el	2a/]
.	4B\	.	4g#i/
.	4A/	.	4f#i/
.	1B	.	1g#i
=67	=67	=67	=67
0AAl	0Al	0e]	0al
!!LO:LB:i:g=z
=68||	=68||	=68||	=68||
*>B	*>B	*>B	*>B
*clefF4	*clefGv2	*clefG2	*clefG2
*k[]	*k[]	*k[]	*k[]
*M2/1	*M2/1	*M2/1	*M2/1
*met(C|)	*met(C|)	*met(C|)	*met(C|)
!!section: Secunda pars: Salve corpus Jesu Christi
!!!OMD: Secunda pars: Salve corpus Jesu Christi
0F	0A	0f	0a
=69	=69	=69	=69
1F	1A	1c	1a
1F	1A	1d	1a
=70	=70	=70	=70
0E	0B	0e	0g
=71	=71	=71	=71
0C	0e	0g	0cc
=72	=72	=72	=72
0D	1.d	0f	1b
.	.	.	1a
.	2c\	.	.
=73	=73	=73	=73
0E	0B	1r	0g
.	.	[1e	.
=74	=74	=74	=74
0F	0A	2e/]	0a
.	.	4d/	.
.	.	4c/	.
.	.	1d	.
=75	=75	=75	=75
0E;	0B;	0e;	0g;
=76	=76	=76	=76
1F	1r	0r	0r
2F\	1c	.	.
2F\	.	.	.
=77	=77	=77	=77
2E\	2c\	0r	0r
2C/	2c\	.	.
2D\	2B\	.	.
2E\	2G/	.	.
=78	=78	=78	=78
1F	2A/	0r	0r
.	2B\	.	.
2E\	2c\	.	.
[2D\	[2B\	.	.
=79	=79	=79	=79
2D\]	4B\]	0r	1r
.	4A/	.	.
2C/	1A	.	.
1BB	.	.	2r
.	2G#i/	.	2b\
=80	=80	=80	=80
1AA	1A	1r	2cc\
.	.	.	2cc\
1r	1E	2r	2b\
.	.	2e/	2g/
=81	=81	=81	=81
0r	0r	2f/	2.a/
.	.	2f/	.
.	.	.	4b\
.	.	2e/	1cc
.	.	2c/	.
=82	=82	=82	=82
0r	0r	2.d/	2b\
.	.	.	1a
.	.	4e/	.
.	.	2f/	.
.	.	[2e/	2g/
=83	=83	=83	=83
0r	0r	2e/]	1f
.	.	2d/	.
.	.	[1e	1e
=84	=84	=84	=84
0C	1r	1e]	1r
.	1G	1r	1g
=85	=85	=85	=85
1C	1G	1e	1g
1C	1c	1e	1g
=86	=86	=86	=86
1F	1A	1f	1a
1D	1d	1f	1a
=87	=87	=87	=87
1E	2B\	1e	1g
.	1c	.	.
1F	.	1a	1cc
.	2A/	.	.
=88	=88	=88	=88
0D	2B\	0f	2b\
.	2c\	.	1a
.	1d	.	.
.	.	.	4g/
.	.	.	4f/
=89	=89	=89	=89
0C;	0G;	0g;	0e;
=90	=90	=90	=90
0F	0A	0f	0a
=91	=91	=91	=91
0D	0d	0f	0a
=92	=92	=92	=92
0C	0e	0g	0cc
=93	=93	=93	=93
0G;	0d;	0g;	0b;
=94	=94	=94	=94
1.F	1.f	1.a	1.cc
2F\	2f\	2a/	2cc\
=95	=95	=95	=95
1C	1e	1g	1cc
1G	[1d	1g	1b
=96	=96	=96	=96
0D	2d\]	1f	1a
.	4c\	.	.
.	4B\	.	.
.	2A/	1f	1r
.	2d\	.	.
=97	=97	=97	=97
1.E	1B	1e	1.g
.	1e	1g	.
2E\	.	.	2g/
=98	=98	=98	=98
1F	0d	2f/	1a
.	.	2a/	.
1G	.	1g	1b
=99	=99	=99	=99
1.C	2.c\	1.e	1.cc
.	4d\	.	.
.	[1e	.	.
2D\	.	2f/	4b\
.	.	.	4a/
=100	=100	=100	=100
2E\	2e\]	2g/	2g/
2F\	4d\	2f/	2a/
.	4c\	.	.
1G	2B\	4d/	2g/
.	.	4e/	.
.	[2d\	4f/	4d/
.	.	4g/	4e/
=101	=101	=101	=101
2D\	2d\]	4a/	4f/
.	.	4g/	4g/
1F	2c\	4f/	1a
.	.	4e/	.
.	2A/	2d/	.
2E\	[2c\	[2e/	4g/
.	.	.	4f/
=102	=102	=102	=102
2C/	4c\]	2e/]	4e/
.	4B\	.	4d/
2E\	2G/	2c/	1g
1D	1A	1d	.
.	.	.	2f#i/
=103	=103	=103	=103
1E	1G	1B	1g
1C	1c	2.e/	1e
.	.	4c/	.
=104	=104	=104	=104
1F	2A/	1c	0a
.	2A/	.	.
2D\	1d	1f	.
2D\	.	.	.
=105	=105	=105	=105
1G	[0G	2d/	1g
.	.	2d/	.
[1C	.	1g	2e/
.	.	.	2e/
=106	=106	=106	=106
0C]	1G]	2c/	1g
.	.	2e/	.
.	2r	2g/	1c
.	2c\	2e/	.
=107	=107	=107	=107
1r	2d\	2f/	0r
.	2B\	2g/	.
2r	2c\	2e/	.
2F\	2c\	2f/	.
=108	=108	=108	=108
2G\	1B	2d/	1r
2E\	.	2e/	.
2F\	2r	2c/	2r
2F\	2A/	2d/	2f/
=109	=109	=109	=109
1E	2B\	1e	2g/
.	2G/	.	2e/
1D	2A/	2r	2f/
.	2F/	2f/	2f/
=110	=110	=110	=110
1C	1c	2g/	1e
.	.	2e/	.
1D	2A/	2f/	2r
.	[2B\	2f/	2d/
=111	=111	=111	=111
1E	2B\]	1e	2g/
.	2c\	.	2e/
1D	1d	1a	2f/
.	.	.	2f/
=112	=112	=112	=112
1E	1B	2g/	1e
.	.	1e	.
1F	1A	.	1a
.	.	2d/	.
=113	=113	=113	=113
[0El	1B	[0el	[0gl
.	1c	.	.
=114	=114	=114	=114
0E]	0Bl	0e]	0g]
!!LO:LB:i:g=z
=115||	=115||	=115||	=115||
*>C	*>C	*>C	*>C
*clefF4	*clefGv2	*clefG2	*clefG2
*k[]	*k[]	*k[]	*k[]
*M2/1	*M2/1	*M2/1	*M2/1
*met(C|)	*met(C|)	*met(C|)	*met(C|)
!!section: Tertia pars: Salve lux mundi
!!!OMD: Tertia pars: Salve lux mundi
0r	0B	0r	0r
=116	=116	=116	=116
0E	1B	0r	0r
.	1B	.	.
=117	=117	=117	=117
1E	1c	0r	0r
1E	2B\	.	.
.	[2c\	.	.
=118	=118	=118	=118
1F	2c\]	0r	0r
.	4B\	.	.
.	4A/	.	.
1E	4B\	.	.
.	4A/	.	.
.	4G/	.	.
.	4F/	.	.
=119	=119	=119	=119
[0E	0G	0r	0b
=120	=120	=120	=120
0E]	0r	0e	1b
.	.	.	1b
=121	=121	=121	=121
0r	0r	1e	1cc
.	.	1e	2b\
.	.	.	[2cc\
=122	=122	=122	=122
1r	1r	1f	2cc\]
.	.	.	4b\
.	.	.	4a/
[1E	[1B	1e	4b\
.	.	.	4a/
.	.	.	4g/
.	.	.	4f/
=123	=123	=123	=123
0E]	1B]	0e	0g
.	1c	.	.
=124	=124	=124	=124
1F	1d	0r	1r
1G	1B	.	[1b
=125	=125	=125	=125
1E	0r	0e	1b]
1r	.	.	1cc
=126	=126	=126	=126
1r	2r	1f	1dd
.	1B	.	.
[1E	.	1g	1b
.	2B\	.	.
=127	=127	=127	=127
2E\]	1c	1e	0r
2E\	.	.	.
1F	1A	1r	.
=128	=128	=128	=128
1D	1.B	1r	2r
.	.	.	1b
1E	.	2r	.
.	[2G/	[2e/	2b\
=129	=129	=129	=129
1C	2G/]	2e/]	1cc
.	1c	2e/	.
1F	.	1f	1a
.	[2d\	.	.
=130	=130	=130	=130
1G	2d\]	1d	1b
.	1G	.	.
1C	.	1e	1cc
.	[2A/	.	.
=131	=131	=131	=131
1D	2A/]	1f	2r
.	1B	.	2f/
1E	.	[1e	1g
.	[2c\	.	.
=132	=132	=132	=132
0F	4c\]	2e/]	1.a
.	4B\	.	.
.	4A/	4d/	.
.	4G/	4c/	.
.	2.A/	1d	.
.	.	.	2a/
.	4B\	.	.
=133	=133	=133	=133
2E\	2c\	2e/	2g/
2D\	2d\	2f/	2f/
1E	1B	4g/	1e
.	.	4f/	.
.	.	4e/	.
.	.	4d/	.
=134	=134	=134	=134
2r	[0A	2c/	1.a
1D	.	1f	.
2C/	.	2e/	2a/
=135	=135	=135	=135
2D\	1A]	2f/	2a/
2C/	.	2e/	1a
2D\	2r	1f	.
2D\	[2d\	.	2a/
=136	=136	=136	=136
1AA	2d\]	1e	1a
.	2c\	.	.
2r	2d\	[1a	2r
2A\	2c\	.	[2cc\
=137	=137	=137	=137
2F\	1d	2a/]	2cc\]
2G\	.	2g/	2b\
2A\	2A/	2f/	2cc\
2G\	2B\	2g/	2b\
=138	=138	=138	=138
1F	2A/	2a/	2cc\
.	2.d\	1f	1a
2D\	.	.	.
.	4c\	.	.
2E\	2B\	4e/	2g/
.	.	4d/	.
=139	=139	=139	=139
2F\	2A/	2c/	2f/
2C/	2G/	2e/	2g/
2D\	2d\	2f/	2f/
2E\	2c\	2g/	2e/
=140	=140	=140	=140
2F\	2A/	2a/	2d/
2E\	1B	2g/	1e
1F	.	1a	.
.	2A/	.	2d/
=141	=141	=141	=141
2r	2c\	0g	1e
2E\	2.B\	.	.
2G\	.	.	1r
.	4c\	.	.
2G\	4d\	.	.
.	4B\	.	.
=142	=142	=142	=142
2A\	2c\	2r	0r
2A\	2A/	2e/	.
1E	1B	2g/	.
.	.	2g/	.
=143	=143	=143	=143
1F	2r	2a/	1r
.	2A/	2a/	.
1A	2c\	1e	2r
.	2c\	.	2e/
=144	=144	=144	=144
1G	2d\	2r	2g/
.	2d\	2b\	2g/
1F	1A	2cc\	2a/
.	.	2cc\	2a/
=145	=145	=145	=145
1r	1r	2b\	2e/
.	.	2g/	2b\
2r	1A	1a	2cc\
2F\	.	.	2cc\
=146	=146	=146	=146
2G\	2B\	1g	2b\
2E\	1c	.	2g/
2F\	.	2f/	2a/
2G\	2B\	2d/	[2b\
=147	=147	=147	=147
2F\	2c\	1f	4b\]
.	.	.	4a/
2D\	2d\	.	1a
1E	1B	[1e	.
.	.	.	2g#i/
=148	=148	=148	=148
1r	2r	1e]	0a
.	1c	.	.
1F	.	1r	.
.	2c\	.	.
=149	=149	=149	=149
2F\	2d\	0r	0r
2G\	2d\	.	.
2G\	2.e\	.	.
[2A\	.	.	.
.	4d\	.	.
=150	=150	=150	=150
4A\]	4c\	0r	0r
4G\	4B\	.	.
4F\	2A/	.	.
4E\	.	.	.
2D\	2B\	.	.
2E\	2G/	.	.
=151	=151	=151	=151
2C/	2A/	0r	0r
2D\	2B\	.	.
2E\	1c	.	.
[2F\	.	.	.
=152	=152	=152	=152
4F\]	4A/	0r	0r
4G\	4B\	.	.
4A\	4c\	.	.
4B\	4d\	.	.
2c\	2e\	.	.
[2A\	[2f\	.	.
=153	=153	=153	=153
2A\]	4f\]	0r	0r
.	4e\	.	.
2G\	1e	.	.
1F	.	.	.
.	2d\	.	.
=154	=154	=154	=154
0E	1e	0r	1g
.	1r	.	2g/
.	.	.	2g/
=155	=155	=155	=155
0r	0r	1r	2f/
.	.	.	2d/
.	.	1g	4e/
.	.	.	4f/
.	.	.	4g/
.	.	.	4a/
=156	=156	=156	=156
0r	0r	2g/	2.b\
.	.	2g/	.
.	.	.	4g/
.	.	2f/	2a/
.	.	2d/	2b\
=157	=157	=157	=157
0r	0r	4e/	2cc\
.	.	4f/	.
.	.	4g/	4b\
.	.	4a/	4a/
.	.	2.b\	2.g/
.	.	4g/	4e/
=158	=158	=158	=158
0r	0r	2a/	2f/
.	.	2b\	2g/
.	.	2cc\	4c/
.	.	.	4d/
.	.	4b\	4e/
.	.	4a/	4f/
=159	=159	=159	=159
0r	0r	2.g/	4g/
.	.	.	4a/
.	.	.	4b\
.	.	4e/	4cc\
.	.	2f/	2dd\
.	.	2g/	2g/
=160	=160	=160	=160
0r	0r	2.c/	2g/
.	.	.	1cc
.	.	4d/	.
.	.	4e/	.
.	.	4f/	.
.	.	2g/	2b\
=161	=161	=161	=161
0r	0r	2f/	2a/
.	.	1e	2g/
.	.	.	1f
.	.	2d/	.
=162	=162	=162	=162
*M3/1	*M3/1	*M3/1	*M3/1
*met()	*met(3)	*met(3)	*met(3)
!!primary-mensuration: met(3)
!LO:N:vis=0	!	!	!
0.r	0.c	0.e	0e
.	.	.	1r
=163	=163	=163	=163
*M3/1	*	*	*
*met(3)	*	*	*
0F	1A	1r	0.r
.	1A	1r	.
1D	1d	[1f	.
=164	=164	=164	=164
1D	1d	1f]	1r
1G	1d	1d	1r
1G	1G	1d	[1g
=165	=165	=165	=165
1G	1B	1g	1g]
1C	1c	1g	1e
1E	1B	1g	1e
=166	=166	=166	=166
1F	1.A	1.c	1a
2E\	.	.	1a
2D\	2B\	2d/	.
1C	1c	1e	1a
=167	=167	=167	=167
1.BB-	1.d	1.f	1.d
2C/	2c\	2e/	2e/
1D	1A	2d/	1f
.	.	2c/	.
=168	=168	=168	=168
1.E	1.G	2B/	1.g
.	.	2G/	.
.	.	0g	.
2F\	2A/	.	2f/
1G	1B	.	1d
=169	=169	=169	=169
1E	1c	1g	1e
1D	1d	1f	1.a
1E	1B	[1e	.
.	.	.	2g/
=170	=170	=170	=170
1C	1c	1e]	0g
0D	0A	0d	.
.	.	.	1f#i
=171	=171	=171	=171
*M2/1	*M2/1	*M2/1	*M2/1
*met(C|)	*met(C|)	*met(C|)	*met(C|)
1G	1r	0d	1g
1r	1B	.	2r
.	.	.	[2b\
=172	=172	=172	=172
1E	2G/	1r	2b\]
.	2G/	.	2g/
2C/	2c\	1e	2g/
2C/	2c\	.	2cc\
=173	=173	=173	=173
2F\	2A/	2c/	2cc\
2F\	2A/	2c/	2a/
2D\	2.d\	2f/	2a/
2D\	.	2f/	[2dd\
.	4c\	.	.
=174	=174	=174	=174
2.G\	4B\	2d/	4dd\]
.	4A/	.	4cc\
.	2G/	2d/	4b\
4F\	.	.	4a/
4E\	2B\	2.g/	1g
4D\	.	.	.
[2C/	[2c\	.	.
.	.	4f/	.
=175	=175	=175	=175
2C/]	4c\]	4e/	2.cc\
.	4B\	4d/	.
1F	1A	2.c/	.
.	.	.	4b\
.	.	.	4a/
.	.	4B/	4g/
2E\	2G/	[2e/	[2b\
=176	=176	=176	=176
1F	1A	2e/]	2b\]
.	.	2d/	1a
1E	1B	1e	.
.	.	.	2g#i/
=177	=177	=177	=177
1AA	1A	0e	1a
2r	1r	.	1r
[2E\	.	.	.
=178	=178	=178	=178
2E\]	1B	0r	0r
2E\	.	.	.
2E\	2B\	.	.
2E\	2G/	.	.
=179	=179	=179	=179
1F	2A/	0r	0r
.	2A/	.	.
2E\	2B\	.	.
2C/	2c\	.	.
=180	=180	=180	=180
1D	1A	1r	0r
[1E	1G	2r	.
.	.	[2e/	.
=181	=181	=181	=181
1E]	0r	2e/]	1b
.	.	2e/	.
1r	.	2e/	2b\
.	.	2e/	2g/
=182	=182	=182	=182
0r	0r	1f	2a/
.	.	.	2a/
.	.	2e/	2b\
.	.	2c/	2cc\
=183	=183	=183	=183
1r	0r	1d	1a
2r	.	1e	1g
[2E\	.	.	.
=184	=184	=184	=184
2E\]	1r	0r	0r
2D\	.	.	.
2E\	2r	.	.
2E\	[2B\	.	.
=185	=185	=185	=185
1F	2B\]	0r	0r
.	2A/	.	.
1E	2B\	.	.
.	2B\	.	.
=186	=186	=186	=186
4C/	1c	2r	0r
4D\	.	.	.
4E\	.	1e	.
4F\	.	.	.
1G	1B	.	.
.	.	2d/	.
=187	=187	=187	=187
1E	4G/	2e/	2r
.	4A/	.	.
.	4B\	2e/	1b
.	4c\	.	.
1r	1d	1f	.
.	.	.	2a/
=188	=188	=188	=188
1E	1B	1e	2b\
.	.	.	2b\
1C	1e	[1g	1cc
=189	=189	=189	=189
1G	1d	2g/]	1.b
.	.	2g/	.
1E	1G	2g/	.
.	.	[2e/	2cc\
=190	=190	=190	=190
0F	1A	2e/]	2cc\
.	.	4d/	2b\
.	.	4c/	.
.	1A	1d	1a
=191	=191	=191	=191
1E	1B	1e	1g
2r	1A	1c	1r
[2F\	.	.	.
=192	=192	=192	=192
2F\]	2r	0r	0r
2F\	1c	.	.
2E\	.	.	.
2C/	2c\	.	.
=193	=193	=193	=193
2D\	2B\	1r	0r
2BB/	2G/	.	.
[1AA	2A/	2r	.
.	2F/	[2cc\	.
=194	=194	=194	=194
1AA]	1E	2cc\]	0r
.	.	2cc\	.
1r	1G	2b\	.
.	.	2g/	.
=195	=195	=195	=195
0r	4F/	2a/	2r
.	4G/	.	.
.	4A/	2f/	1cc
.	4B\	.	.
.	4c\	1e	.
.	4B\	.	.
.	4c\	.	2cc\
.	4d\	.	.
=196	=196	=196	=196
0r	4e\	0r	2b\
.	4f\	.	.
.	2e\	.	2g/
.	2c\	.	2a/
.	2d\	.	2f/
=197	=197	=197	=197
0r	2c\	0r	2e/
.	2A/	.	1a
.	1B	.	.
.	.	.	2g/
=198	=198	=198	=198
2r	1A	2.a/	2f/
1F	.	.	2c/
.	.	4a/	.
.	2r	2a/	1d
2F\	2A/	2f/	.
=199	=199	=199	=199
2E\	2B\	2g/	1e
2C/	2c\	1e	.
1D	2A/	.	1f
.	2B\	2d/	.
=200	=200	=200	=200
*	*	*M2/1	*M2/1
*	*	*met(3)	*met(3)
1AA	0c	3%4e	3%4.e
1r	.	.	.
.	.	3%2r	.
=201	=201	=201	=201
*M3/1	*M3/1	*M3/1	*M3/1
*met(3)	*met(3)	*met()	*met()
0E	1B	1r	1r
.	1r	1r	1r
1G	[1B	1r	1r
=202	=202	=202	=202
1G	1B]	0.r	0.r
1F	1d	.	.
1D	1d	.	.
=203	=203	=203	=203
1E	1c	0.r	0.r
1F	1A	.	.
1G	1B	.	.
=204	=204	=204	=204
1E	1c	1r	0.r
[0D	1d	0d	.
.	1B	.	.
=205	=205	=205	=205
0D]	0A	1f	0a
.	.	1f	.
1r	1r	1e	1cc
=206	=206	=206	=206
0.r	0.r	1c	1cc
.	.	1d	1b
.	.	1e	1g
=207	=207	=207	=207
0.r	0.r	1f	1a
.	.	1d	1b
.	.	1c	1cc
=208	=208	=208	=208
*M2/1	*M2/1	*M2/1	*M2/1
*met(C|)	*met(C|)	*met()	*met()
!!primary-mensuration: met(C|)
0C	1r	3%4.e	3%2a
.	.	.	3%4g
.	1c	.	.
=209	=209	=209	=209
*	*	*M2/1	*M2/1
*	*	*met(C|)	*met(C|)
1F	1A	1f	1a
1D	1d	1f	1a
=210	=210	=210	=210
1E	2B\	1e	1g
.	1c	.	.
1F	.	1a	1cc
.	2A/	.	.
=211	=211	=211	=211
0D	2B\	0f	2b\
.	2c\	.	1a
.	1d	.	.
.	.	.	4g/
.	.	.	4f/
=212	=212	=212	=212
0C;	0G;	0g;	0e;
=213	=213	=213	=213
0F	0A	0f	0a
=214	=214	=214	=214
0D	0d	0f	0a
=215	=215	=215	=215
0C	0e	0g	0cc
=216	=216	=216	=216
0G;	0d;	0g;	0b;
=217	=217	=217	=217
1A	1c	1e	1cc
1A	1c	1f	1a
=218	=218	=218	=218
1G	1d	1g	1b
1E	1e	1g	1g
=219	=219	=219	=219
0F	0A	2f/	0a
.	.	1e	.
.	.	2d/	.
=220	=220	=220	=220
1E	1B	1e	1g
1r	1r	2r	2r
.	.	2d/	2f/
=221	=221	=221	=221
1r	1r	2e/	2g/
.	.	2c/	2e/
2r	2r	2d/	2f/
2F\	2A/	2d/	2f/
=222	=222	=222	=222
2G\	2B\	1e	1e
2E\	2G/	.	.
2F\	2A/	2r	2r
2F\	2A/	2d/	2a/
=223	=223	=223	=223
1E	1B	2e/	2g/
.	.	2c/	2e/
2r	2r	2d/	2f/
2F\	2A/	2d/	2f/
=224	=224	=224	=224
2G\	2B\	1e	1e
2E\	2c\	.	.
2F\	2A/	2r	1a
2F\	2A/	2f/	.
=225	=225	=225	=225
0E	1.e	1g	1b
.	.	1g	[1cc
.	2d\	.	.
=226	=226	=226	=226
0AA	0c	1a	2cc\]
.	.	.	2b\
.	.	1e	1a
=227	=227	=227	=227
[0El	0B	0e	[0g
=228	=228	=228	=228
0E_	[0Bl	[0el	0g]
=229	=229	=229	=229
0E]	0B]	0e]	0bl
==	==	==	==
*-	*-	*-	*-
!!!RDF**kern: l=long note in original notation
!!!RDF**kern: i=editorial accidental
!!!ENC: Jesse Rodin
!!!END: 08/18/2013
!!!EED: Jesse Rodin
!!!EEV: 2012/04/14
!!attribution-level@Jos: 4b (almost certainly by another composer [double question mark])
!!!ONB: Translated from MusicXML and edited on 2021/04/14 by Craig Sapp
!!muse2ps: C^@{COA}??\n@{SCT}^i2I150v95,95,95,120Fz16c125
